Pods/ProtonCore-UIFoundations/libraries/UIFoundations/Sources/Assets.xcassets/Images/IconSet/ic-brand-proton-calendar.imageset/ic-brand-proton-calendar.svg

<svg width="24" height="24" viewBox="0 0 24 24" fill="none" xmlns="http://www.w3.org/2000/svg">
<path fill-rule="evenodd" clip-rule="evenodd" d="M3.75 4.5H20.25C20.6642 4.5 21 4.83579 21 5.25V12H18V8.25C18 7.00736 16.9926 6 15.75 6H3V5.25C3 4.83579 3.33579 4.5 3.75 4.5ZM1.5 5.25V6.75V18.75C1.5 19.9926 2.50736 21 3.75 21H11.25H13.5H15V19.5V15.75C15 14.5074 16.0074 13.5 17.25 13.5H21H22.5V12V5.25C22.5 4.00736 21.4926 3 20.25 3H3.75C2.50736 3 1.5 4.00736 1.5 5.25ZM12 19.5V18.182C12 17.7842 12.158 17.4026 12.4393 17.1213L13.5 16.0607V19.5H12Z" fill="#0C0C14"/>
</svg>

<svg xmlns="http://www.w3.org/2000/svg" width="24" height="24" viewBox="0 0 24 24">
  <g class="ic-brand-proton-calendar">
    <path fill-rule="evenodd" d="M3.75 4.5h16.5a.75.75 0 0 1 .75.75V12h-3V8.25A2.25 2.25 0 0 0 15.75 6H3v-.75a.75.75 0 0 1 .75-.75Zm-2.25.75v13.5A2.25 2.25 0 0 0 3.75 21H15v-5.25a2.25 2.25 0 0 1 2.25-2.25h5.25V5.25A2.25 2.25 0 0 0 20.25 3H3.75A2.25 2.25 0 0 0 1.5 5.25ZM12 19.5v-1.318c0-.398.158-.78.44-1.06l1.06-1.061V19.5H12Z" class="Icon"/>
  </g>
</svg>
